Adwaita++/actions/symbolic/document-revert-symbolic-rtl.svg

<svg height="16" width="16" xmlns="http://www.w3.org/2000/svg">
  <g fill="#474747">
    <path d="m3 1a1 1 0 0 0 -1 1v4a1 1 0 1 0 2 0v-3h5.586l2.414 2.414v8.586h-8v-3s.014-.291.145-.553c.13-.261.188-.447.855-.447h3a1 1 0 1 0 0-2h-3c-1.333 0-2.275.814-2.645 1.553-.369.737-.355 1.447-.355 1.447v4a1 1 0 0 0 1 1h10a1 1 0 0 0 1-1v-10a1 1 0 0 0 -.293-.707l-3-3a1 1 0 0 0 -.707-.293z" fill-rule="evenodd"/>
    <path d="m7.707 6.293-1.414 1.414 1.293 1.293-1.293 1.293 1.414 1.414 2.707-2.707z"/>
    <path d="m7 11h-1v1h1zm0-5h-1v1h1z"/>
    <path d="m7 6c-.554 0-1 .446-1 1s.446 1 1 1 1-.446 1-1-.446-1-1-1zm0 4c-.554 0-1 .446-1 1s.446 1 1 1 1-.446 1-1-.446-1-1-1z"/>
  </g>
</svg>

<svg xmlns="http://www.w3.org/2000/svg" width="16" height="16">
    <g color="#000" fill="#474747">
        <path d="M3 1a1 1 0 0 0-1 1v4a1 1 0 1 0 2 0V3h5.586L12 5.414V14H4v-3s.014-.291.145-.553c.13-.261.188-.447.855-.447h3a1 1 0 1 0 0-2H5c-1.333 0-2.275.814-2.645 1.553C1.986 10.29 2 11 2 11v4a1 1 0 0 0 1 1h10a1 1 0 0 0 1-1V5a1 1 0 0 0-.293-.707l-3-3A1 1 0 0 0 10 1z" style="line-height:normal;font-variant-ligatures:normal;font-variant-position:normal;font-variant-caps:normal;font-variant-numeric:normal;font-variant-alternates:normal;font-feature-settings:normal;text-indent:0;text-align:start;text-decoration-line:none;text-decoration-style:solid;text-decoration-color:#000;text-transform:none;text-orientation:mixed;shape-padding:0;isolation:auto;mix-blend-mode:normal" font-weight="400" font-family="sans-serif" white-space="normal" overflow="visible" fill-rule="evenodd"/>
        <path d="M7.707 6.293L6.293 7.707 7.586 9l-1.293 1.293 1.414 1.414L10.414 9z" style="line-height:normal;font-variant-ligatures:normal;font-variant-position:normal;font-variant-caps:normal;font-variant-numeric:normal;font-variant-alternates:normal;font-feature-settings:normal;text-indent:0;text-align:start;text-decoration-line:none;text-decoration-style:solid;text-decoration-color:#000;text-transform:none;text-orientation:mixed;shape-padding:0;isolation:auto;mix-blend-mode:normal;marker:none" font-weight="400" font-family="sans-serif" white-space="normal" overflow="visible"/>
        <path d="M7 11H6v1h1zM7 6H6v1h1z" style="marker:none" overflow="visible"/>
        <path d="M7 6c-.554 0-1 .446-1 1s.446 1 1 1 1-.446 1-1-.446-1-1-1zM7 10c-.554 0-1 .446-1 1s.446 1 1 1 1-.446 1-1-.446-1-1-1z" style="marker:none" overflow="visible"/>
    </g>
</svg>
